flaticon/arrows/back.svg

<svg xmlns="http://www.w3.org/2000/svg" width="32" height="32" viewBox="0 0 24 24">
    <path d="M 23.640625 23.246094 L 23.027344 22.21875 C 18.320312 14.304688 11.875 14.792969 10.296875 15.046875 L 10.296875 21.285156 L 0 10.96875 L 10.296875 0.75 L 10.296875 6.890625 C 10.347656 6.890625 10.402344 6.890625 10.453125 6.890625 C 16.175781 6.890625 18.816406 9.296875 18.929688 9.402344 C 25.230469 14.644531 23.882812 22 23.871094 22.070312 Z M 11.660156 14.050781 C 14.308594 14.050781 19.191406 14.929688 23.082031 20.605469 C 23.140625 18.378906 22.675781 13.707031 18.324219 10.085938 C 18.28125 10.046875 15.613281 7.636719 9.851562 7.8125 L 9.382812 7.828125 L 9.382812 2.945312 L 1.292969 10.972656 L 9.382812 19.074219 L 9.382812 14.3125 L 9.730469 14.226562 C 9.753906 14.222656 10.488281 14.050781 11.660156 14.050781 Z M 11.660156 14.050781"/>
</svg>

<svg xmlns="http://www.w3.org/2000/svg" width="32" height="32" viewBox="0 0 24 24">
    <path d="M23.64 23.246l-.613-1.027c-4.707-7.914-11.152-7.426-12.73-7.172v6.238L0 10.97 10.297.75v6.14h.156c5.723 0 8.363 2.407 8.477 2.512C25.23 14.645 23.883 22 23.87 22.07zm-11.98-9.195c2.649 0 7.531.879 11.422 6.554.059-2.226-.406-6.898-4.758-10.52-.043-.038-2.71-2.448-8.472-2.273l-.47.016V2.945l-8.089 8.028 8.09 8.101v-4.762l.347-.085c.024-.004.758-.176 1.93-.176zm0 0"/>
</svg>
